build/img/c-info.svg

<svg width="24" height="25" viewBox="0 0 24 25" fill="none" xmlns="http://www.w3.org/2000/svg">
<circle cx="11.579" cy="7.44161" r="4.77803" stroke="white" stroke-width="1.5" stroke-linecap="round" stroke-linejoin="round"/>
<path fill-rule="evenodd" clip-rule="evenodd" d="M4.00002 18.8651C3.99873 18.5292 4.07385 18.1975 4.2197 17.8949C4.67736 16.9795 5.96798 16.4944 7.03892 16.2747C7.81128 16.1099 8.59431 15.9998 9.38217 15.9452C10.8408 15.8171 12.3079 15.8171 13.7666 15.9452C14.5544 16.0004 15.3374 16.1105 16.1099 16.2747C17.1808 16.4944 18.4714 16.9338 18.9291 17.8949C19.2224 18.5117 19.2224 19.2277 18.9291 19.8445C18.4714 20.8056 17.1808 21.245 16.1099 21.4555C15.3384 21.6272 14.5551 21.7404 13.7666 21.7942C12.5794 21.8948 11.3866 21.9132 10.1968 21.8491C9.92221 21.8491 9.65677 21.8491 9.38217 21.7942C8.59663 21.741 7.81632 21.6278 7.04807 21.4555C5.96798 21.245 4.68652 20.8056 4.2197 19.8445C4.0746 19.5384 3.99955 19.2039 4.00002 18.8651Z" stroke="white" stroke-width="1.5" stroke-linecap="round" stroke-linejoin="round"/>
</svg>

<svg width="24" height="25" fill="none" xmlns="http://www.w3.org/2000/svg"><circle cx="11.579" cy="7.442" r="4.778" stroke="#fff" stroke-width="1.5" stroke-linecap="round" stroke-linejoin="round"/><path clip-rule="evenodd" d="M4 18.865a2.215 2.215 0 01.22-.97c.457-.915 1.748-1.4 2.819-1.62a16.793 16.793 0 012.343-.33 25.059 25.059 0 014.385 0c.787.055 1.57.165 2.343.33 1.07.22 2.361.659 2.82 1.62a2.27 2.27 0 010 1.95c-.459.96-1.75 1.4-2.82 1.61a15.71 15.71 0 01-2.343.34c-1.188.1-2.38.118-3.57.054-.275 0-.54 0-.815-.055a15.43 15.43 0 01-2.334-.338c-1.08-.211-2.361-.65-2.828-1.611a2.279 2.279 0 01-.22-.98z" stroke="#fff" stroke-width="1.5" stroke-linecap="round" stroke-linejoin="round"/></svg>
